;FLAVOR:Marlin
;TIME:6666
;Filament used: 0m
;Layer height: 0.3

;Generated with Cura_SteamEngine master
M104 S225
M105
M109 S225
M82 ;absolute extrusion mode
G28 ;Home
G29
G1 Z15.0 F6000 ;Move the platform down 15mm
;Prime the extruder
G92 E0
G1 F200 E3
G92 E0
G92 E0
G1 F2400 E-2
;LAYER_COUNT:81
;LAYER:0
M107
G0 F6600 X49.931 Y102.633 Z0.3
;TYPE:SKIRT
G1 F2400 E0
G1 F2100 X50.137 Y102.542 E0.00635
G1 X54.135 Y100.947 E0.12781
G1 X54.409 Y100.851 E0.136
G1 X59.332 Y99.373 E0.28103
G1 X59.462 Y99.337 E0.28484
G1 X62.602 Y98.533 E0.37629
G1 X62.824 Y98.485 E0.3827
G1 X69.001 Y97.348 E0.55992
G1 X69.214 Y97.315 E0.566
G1 X71.692 Y97.025 E0.6364
G1 X71.87 Y97.009 E0.64144
G1 X77.669 Y96.646 E0.80538
G1 X77.839 Y96.64 E0.81018
G1 X82.82 Y96.585 E0.95073
G1 X82.945 Y96.586 E0.95426
G1 X94.274 Y96.89 E1.27403
G1 X94.45 Y96.9 E1.27901
G1 X98.852 Y97.255 E1.40362
G1 X98.958 Y97.265 E1.40662
G1 X120.798 Y99.734 E2.02678
G1 X126.05 Y100.202 E2.17556
G1 X129.608 Y100.383 E2.27608
G1 X135.082 Y100.412 E2.43053
G1 X140.555 Y100.131 E2.58516
G1 X146 Y99.542 E2.73969
G1 X151.373 Y98.65 E2.89337
G1 X156.73 Y97.447 E3.04829
G1 X159.329 Y96.746 E3.12424
G1 X164.576 Y95.09 E3.27949
G1 X169.695 Y93.149 E3.43396
G1 X174.687 Y90.926 E3.58815
G1 X179.552 Y88.42 E3.74256
G1 X184.266 Y85.644 E3.89692
G1 X188.815 Y82.606 E4.05127
G1 X193.157 Y79.347 E4.20445
G1 X193.59 Y79.072 E4.21892
G1 X194.299 Y78.794 E4.24041
G1 X195.608 Y78.45 E4.2786
G1 X195.784 Y78.409 E4.2837
G1 X198.747 Y77.801 E4.36904
G1 X198.995 Y77.76 E4.37614
G1 X207.491 Y76.683 E4.61778
G1 X222.347 Y74.492 E5.04148
G1 X222.446 Y74.479 E5.0443
G1 X226.944 Y73.953 E5.17208
G1 X227.046 Y73.943 E5.17497
G1 X231.603 Y73.554 E5.30402
G1 X231.725 Y73.546 E5.30747
G1 X236.421 Y73.319 E5.44013
G1 X236.548 Y73.315 E5.44371
G1 X241.332 Y73.268 E5.5787
G1 X241.456 Y73.269 E5.5822
G1 X246.173 Y73.4 E5.71535
G1 X246.291 Y73.406 E5.71868
G1 X251.096 Y73.712 E5.85453
G1 X251.208 Y73.721 E5.8577
G1 X255.956 Y74.187 E5.99232
G1 X256.066 Y74.199 E5.99544
G1 X260.55 Y74.791 E6.12306
G1 X260.663 Y74.808 E6.12628
G1 X265.276 Y75.58 E6.25825
G1 X265.43 Y75.61 E6.26268
G1 X272.051 Y77.045 E6.45383
G1 X272.194 Y77.079 E6.45798
G1 X276.001 Y78.084 E6.56908
G1 X276.156 Y78.129 E6.57363
G1 X280.972 Y79.655 E6.71618
G1 X281.142 Y79.714 E6.72125
G1 X285.511 Y81.365 E6.85304
G1 X285.676 Y81.433 E6.85807
G1 X289.586 Y83.158 E6.97866
G1 X289.809 Y83.266 E6.98565
G1 X294.116 Y85.567 E7.12343
G1 X294.315 Y85.683 E7.12993
G1 X297.604 Y87.747 E7.23949
G1 X297.825 Y87.898 E7.24704
G1 X301.077 Y90.327 E7.36157
G1 X301.296 Y90.506 E7.36955
G1 X305.247 Y94.023 E7.5188
G1 X305.515 Y94.291 E7.52949
G1 X308.529 Y97.669 E7.65723
G1 X308.758 Y97.955 E7.66757
G1 X310.924 Y101.005 E7.77312
G1 X311.054 Y101.204 E7.77983
G1 X312.396 Y103.415 E7.85281
G1 X312.535 Y103.668 E7.86095
G1 X313.585 Y105.798 E7.92796
G1 X313.682 Y106.015 E7.93466
G1 X314.473 Y107.962 E7.99396
G1 X314.556 Y108.19 E8.00081
G1 X315.206 Y110.204 E8.06052
G1 X315.283 Y110.483 E8.06868
G1 X315.812 Y112.799 E8.13572
G1 X315.865 Y113.088 E8.14401
G1 X316.105 Y114.847 E8.1941
G1 X316.131 Y115.14 E8.2024
G1 X316.25 Y117.709 E8.27496
G1 X316.251 Y117.998 E8.28312
G1 X316.17 Y119.964 E8.33864
G1 X316.149 Y120.227 E8.34608
G1 X315.935 Y121.986 E8.39608
G1 X315.895 Y122.234 E8.40317
G1 X315.506 Y124.179 E8.45913
G1 X315.457 Y124.388 E8.46519
G1 X315.019 Y126.018 E8.51281
G1 X314.953 Y126.235 E8.51921
G1 X314.147 Y128.578 E8.58912
G1 X314.037 Y128.856 E8.59756
G1 X312.685 Y131.869 E8.69074
G1 X312.564 Y132.111 E8.69837
G1 X311.112 Y134.745 E8.78324
G1 X310.991 Y134.947 E8.78988
G1 X309.405 Y137.394 E8.87216
G1 X309.28 Y137.574 E8.87835
G1 X307.136 Y140.444 E8.97943
G1 X307.026 Y140.583 E8.98443
G1 X305.677 Y142.2 E9.04384
G1 X305.55 Y142.344 E9.04926
G1 X301.932 Y146.2 E9.19846
G1 X301.745 Y146.384 E9.20586
G1 X298.205 Y149.603 E9.34086
G1 X298.015 Y149.763 E9.34787
G1 X293.293 Y153.448 E9.51688
G1 X293.132 Y153.566 E9.52251
G1 X289.65 Y155.959 E9.64172
G1 X289.478 Y156.069 E9.64748
G1 X284.653 Y158.962 E9.80622
G1 X284.5 Y159.049 E9.81119
G1 X280.403 Y161.218 E9.94199
G1 X280.252 Y161.293 E9.94674
G1 X275.303 Y163.597 E10.10077
G1 X275.173 Y163.654 E10.10478
G1 X271.812 Y165.047 E10.20744
G1 X271.687 Y165.095 E10.21121
G1 X265.138 Y167.502 E10.40809
G1 X264.994 Y167.552 E10.41239
G1 X260.449 Y168.988 E10.54688
G1 X260.346 Y169.018 E10.5499
G1 X255.785 Y170.297 E10.68356
G1 X255.688 Y170.323 E10.68639
G1 X250.832 Y171.526 E10.82755
G1 X250.735 Y171.549 E10.83036
G1 X245.871 Y172.6 E10.97077
G1 X245.744 Y172.624 E10.97442
G1 X237.44 Y174.08 E11.2123
G1 X237.322 Y174.099 E11.21567
G1 X232.558 Y174.758 E11.35137
G1 X232.479 Y174.768 E11.35362
G1 X227.67 Y175.315 E11.49018
G1 X227.596 Y175.322 E11.49228
G1 X222.713 Y175.767 E11.63063
G1 X222.617 Y175.775 E11.63335
G1 X212.857 Y176.377 E11.90926
G1 X212.753 Y176.382 E11.91219
G1 X203.433 Y176.662 E12.17528
G1 X203.373 Y176.663 E12.17698
G1 X199.008 Y176.715 E12.30015
G1 X198.915 Y176.715 E12.30277
G1 X190.597 Y176.578 E12.5375
G1 X190.527 Y176.576 E12.53948
G1 X181.159 Y176.225 E12.80399
G1 X181.036 Y176.218 E12.80747
G1 X174.015 Y175.69 E13.00613
G1 X173.425 Y175.591 E13.02301
G1 X169.608 Y174.59 E13.13435
G1 X163.485 Y173.271 E13.31108
G1 X154.876 Y171.787 E13.55757
G1 X154.872 Y171.786 E13.55769
G1 X145.197 Y170.108 E13.83475
G1 X137.491 Y169.07 E14.05415
G1 X126.842 Y167.835 E14.35663
G1 X116.333 Y166.735 E14.65477
G1 X116.144 Y166.71 E14.66015
G1 X106.52 Y165.134 E14.93532
G1 X106.399 Y165.112 E14.93879
G1 X96.175 Y163.046 E15.2331
G1 X96.112 Y163.032 E15.23492
G1 X85.297 Y160.623 E15.54755
G1 X85.203 Y160.601 E15.55028
G1 X68.632 Y156.401 E16.03262
G1 X68.545 Y156.378 E16.03516
G1 X62.122 Y154.562 E16.2235
G1 X61.88 Y154.483 E16.23068
G1 X54.746 Y151.856 E16.44519
G1 X54.484 Y151.747 E16.45319
G1 X48.993 Y149.171 E16.62433
G1 X48.732 Y149.033 E16.63266
G1 X43.615 Y146.047 E16.79982
G1 X43.15 Y145.719 E16.81588
G1 X39.629 Y142.749 E16.94585
G1 X39.431 Y142.568 E16.95342
G1 X37.987 Y141.133 E17.01086
G1 X37.54 Y140.58 E17.03093
G1 X36.126 Y138.387 E17.10455
G1 X35.909 Y137.996 E17.11717
G1 X33.598 Y133.05 E17.27121
G1 X33.418 Y132.569 E17.2857
G1 X33.328 Y132.163 E17.29743
G1 X32.974 Y129.899 E17.36209
G1 X32.934 Y129.428 E17.37542
G1 X32.883 Y125.166 E17.49569
G1 X32.885 Y125.003 E17.50029
G1 X33.011 Y121.651 E17.59493
G1 X33.037 Y121.348 E17.60352
G1 X33.173 Y120.306 E17.63317
G1 X33.279 Y119.804 E17.64764
G1 X33.448 Y119.352 E17.66126
G1 X35.67 Y114.528 E17.81112
G1 X35.852 Y114.187 E17.82202
G1 X37.282 Y111.849 E17.89935
G1 X37.583 Y111.433 E17.91384
G1 X37.79 Y111.211 E17.92241
G1 X41.172 Y107.905 E18.05585
G1 X41.41 Y107.694 E18.06482
G1 X43.07 Y106.358 E18.12495
G1 X43.554 Y106.034 E18.14138
G1 X48.52 Y103.315 E18.30113
G1 X48.676 Y103.236 E18.30606
G1 X49.931 Y102.633 E18.34535
G1 F2400 E16.34535
G0 F6600 X62.524 Y101.239
G0 X62.778 Y102.189
G0 X132.178 Y104.188
G0 X136.564 Y104.197
G0 X140.933 Y103.989
G0 X147.098 Y103.518
G0 X152.198 Y102.891
G0 X155.63 Y102.289
G0 X158.813 Y101.538
G0 X161.529 Y100.729
G0 X167.286 Y98.734
G0 X172.851 Y96.531
G0 X178.239 Y94.208
G0 X180.033 Y93.329
G0 X181.759 Y92.386
G0 X185.134 Y90.352
G0 X186.776 Y89.261
G0 X190.879 Y86.073
G0 X195.402 Y82.323
G0 X195.393 Y82.224
;TYPE:WALL-OUTER
G1 F2400 E18.34535
G1 F2100 X195.586 Y82.147 E18.35121
G1 X197.074 Y81.804 E18.3943
G1 X198.942 Y81.424 E18.44809
G1 X200.237 Y81.188 E18.48523
G1 X201.636 Y81.015 E18.525
G1 X205.029 Y80.616 E18.6214
G1 X209.511 Y80.06 E18.74883
G1 X212.843 Y79.535 E18.84401
G1 X218.8 Y78.623 E19.01405
G1 X223.457 Y77.972 E19.14672
G1 X228.144 Y77.441 E19.27982
G1 X232.839 Y77.067 E19.41271
G1 X237.57 Y76.875 E19.54631
G1 X242.279 Y76.866 E19.67918
G1 X247.004 Y77.032 E19.81258
G1 X251.708 Y77.364 E19.94564
G1 X256.395 Y77.852 E20.0786
G1 X260.944 Y78.48 E20.20817
G1 X265.667 Y79.303 E20.34344
G1 X270.245 Y80.292 E20.4756
G1 X274.808 Y81.479 E20.60863
G1 X279.29 Y82.868 E20.74103
G1 X283.657 Y84.481 E20.87238
G1 X287.77 Y86.262 E20.99885
G1 X292.015 Y88.49 E21.13412
G1 X295.718 Y90.802 E21.25729
G1 X299.481 Y93.631 E21.39013
G1 X302.843 Y96.69 E21.51838
G1 X305.847 Y100.055 E21.64566
G1 X308.397 Y103.668 E21.77043
G1 X309.311 Y105.248 E21.82194
G1 X310.091 Y106.788 E21.87064
G1 X310.792 Y108.385 E21.91985
G1 X311.39 Y109.994 E21.96829
G1 X311.882 Y111.634 E22.0166
G1 X312.265 Y113.336 E22.06582
G1 X312.523 Y115.093 E22.11593
G1 X312.65 Y116.855 E22.16578
G1 X312.657 Y118.582 E22.21451
G1 X312.559 Y120.144 E22.25866
G1 X312.361 Y121.622 E22.30074
G1 X312.094 Y122.99 E22.34007
G1 X311.751 Y124.387 E22.38066
G1 X311.344 Y125.75 E22.42079
G1 X310.866 Y127.103 E22.46128
G1 X310.321 Y128.45 E22.50228
G1 X309.756 Y129.696 E22.54088
G1 X309.074 Y131.053 E22.58374
G1 X308.372 Y132.325 E22.62473
G1 X307.616 Y133.583 E22.66614
G1 X306.815 Y134.82 E22.70772
G1 X305.964 Y136.042 E22.74974
G1 X304.581 Y137.892 E22.81491
G1 X302.807 Y140.034 E22.89339
G1 X299.327 Y143.73 E23.03662
G1 X295.541 Y147.166 E23.18088
G1 X291.794 Y150.115 E23.31543
G1 X287.533 Y153.055 E23.46149
G1 X283.345 Y155.585 E23.59955
G1 X278.858 Y157.975 E23.743
G1 X274.229 Y160.148 E23.88728
G1 X269.487 Y162.113 E24.03211
G1 X264.861 Y163.812 E24.17117
G1 X260.155 Y165.329 E24.31068
G1 X255.57 Y166.64 E24.44523
G1 X250.744 Y167.86 E24.58569
G1 X245.873 Y168.935 E24.72643
G1 X240.983 Y169.863 E24.86687
G1 X236.196 Y170.635 E25.00368
G1 X231.466 Y171.273 E25.13835
G1 X226.7 Y171.8 E25.27365
G1 X221.919 Y172.224 E25.40908
G1 X217.136 Y172.554 E25.54436
G1 X212.344 Y172.798 E25.67974
G1 X207.534 Y172.969 E25.81555
G1 X203.036 Y173.07 E25.94249
G1 X198.299 Y173.123 E26.07616
G1 X194.708 Y173.067 E26.17749
G1 X190.474 Y172.974 E26.29699
G1 X186.242 Y172.844 E26.41646
G1 X185.551 Y172.813 E26.43597
G1 X184.134 Y172.769 E26.47597
G1 X183.302 Y172.722 E26.49949
G1 X182.022 Y172.671 E26.53563
G1 X180.999 Y172.606 E26.56455
G1 X179.921 Y172.558 E26.595
G1 X178.639 Y172.467 E26.63126
G1 X177.817 Y172.425 E26.65449
G1 X176.132 Y172.292 E26.70218
G1 X175.626 Y172.262 E26.71648
G1 X174.93 Y172.202 E26.73619
G1 X174.184 Y172.092 E26.75747
G1 X173.684 Y171.94 E26.77222
G1 X173.6 Y171.924 E26.77463
G1 X171.603 Y171.341 E26.83333
G1 X171.218 Y171.274 E26.84435
G1 X169.478 Y170.806 E26.89519
G1 X168.801 Y170.697 E26.91454
G1 X167.318 Y170.324 E26.95769
G1 X166.393 Y170.182 E26.98409
G1 X165.144 Y169.879 E27.02036
G1 X163.977 Y169.709 E27.05363
G1 X162.978 Y169.477 E27.08257
G1 X161.565 Y169.271 E27.12286
G1 X160.759 Y169.091 E27.14616
G1 X159.22 Y168.861 E27.19007
G1 X158.669 Y168.739 E27.20599
G1 X156.873 Y168.474 E27.25722
G1 X156.606 Y168.415 E27.26493
G1 X154.475 Y168.079 E27.3258
G1 X154.323 Y168.046 E27.33019
G1 X152.798 Y167.807 E27.37375
G1 X149.916 Y167.266 E27.45649
G1 X149.613 Y167.22 E27.46513
G1 X147.638 Y166.853 E27.52181
G1 X147.142 Y166.781 E27.53596
G1 X145.491 Y166.486 E27.58328
G1 X143.992 Y166.316 E27.62584
G1 X140.951 Y165.851 E27.71265
G1 X138.675 Y165.603 E27.77725
G1 X136.207 Y165.227 E27.84769
G1 X133.485 Y164.95 E27.92489
G1 X131.815 Y164.699 E27.97254
G1 X128.388 Y164.388 E28.06963
G1 X127.232 Y164.218 E28.1026
G1 X123.246 Y163.874 E28.21548
G1 X122.631 Y163.783 E28.23302
G1 X118.09 Y163.349 E28.36174
G1 X117.556 Y163.285 E28.37691
G1 X113.559 Y162.662 E28.49105
G1 X112.913 Y162.569 E28.50947
G1 X107.634 Y161.682 E28.66051
G1 X102.363 Y160.676 E28.81192
G1 X97.162 Y159.578 E28.9619
G1 X95.948 Y159.303 E28.99702
G1 X89.568 Y157.915 E29.18125
G1 X86.95 Y157.332 E29.25693
G1 X82.569 Y156.211 E29.38453
G1 X80.955 Y155.818 E29.4314
G1 X77.463 Y154.93 E29.53306
G1 X72.272 Y153.63 E29.68405
G1 X69.918 Y153.023 E29.75265
G1 X63.477 Y151.231 E29.94129
G1 X63.076 Y151.092 E29.95326
G1 X56.601 Y148.755 E30.1475
G1 X54.172 Y147.654 E30.22274
G1 X51.149 Y146.264 E30.31663
G1 X46.802 Y143.807 E30.45752
G1 X45.433 Y142.952 E30.50306
G1 X41.408 Y139.538 E30.65198
G1 X40.496 Y138.559 E30.68973
G1 X39.162 Y136.473 E30.75959
G1 X38.862 Y135.667 E30.78386
G1 X38.022 Y133.93 E30.8383
G1 X37.378 Y132.507 E30.88237
G1 X36.865 Y131.557 E30.91284
G1 X36.636 Y130.099 E30.95448
G1 X36.53 Y129.535 E30.97067
G1 X36.555 Y128.136 E31.01015
G1 X36.506 Y127.563 E31.02638
G1 X36.498 Y126.342 E31.06083
G1 X36.481 Y125.477 E31.08524
G1 X36.493 Y123.242 E31.14831
G1 X36.618 Y121.571 E31.19559
G1 X36.725 Y120.816 E31.2171
G1 X37.421 Y119.238 E31.26577
G1 X38.077 Y117.897 E31.30789
G1 X38.506 Y116.826 E31.34044
G1 X39.663 Y114.714 E31.40839
G1 X40.34 Y113.73 E31.44209
G1 X41.841 Y112.205 E31.50247
G1 X43.396 Y110.721 E31.56312
G1 X44.393 Y109.898 E31.59959
G1 X45.348 Y109.134 E31.6341
G1 X47.741 Y107.848 E31.71075
G1 X50.876 Y106.13 E31.81162
G1 X54.188 Y104.77 E31.91264
G1 X55.69 Y104.2 E31.95797
G1 X56.114 Y104.048 E31.97068
G1 X60.806 Y102.695 E32.10847
G1 X62.774 Y102.17 E32.16594
G1 X66.153 Y101.474 E32.26328
G1 X69.306 Y100.932 E32.35355
G1 X71.614 Y100.641 E32.41919
G1 X75.601 Y100.323 E32.53204
G1 X77.193 Y100.252 E32.577
G1 X81.927 Y100.167 E32.7106
G1 X88.277 Y100.292 E32.8898
G1 X89.345 Y100.338 E32.91997
G1 X94.663 Y100.504 E33.07009
G1 X95.816 Y100.566 E33.10267
G1 X99.036 Y100.89 E33.19399
G1 X105.965 Y101.725 E33.39091
G1 X112.817 Y102.489 E33.58544
G1 X115.799 Y102.778 E33.66997
G1 X117.687 Y102.999 E33.72361
G1 X118.246 Y103.071 E33.73951
G1 X122.625 Y103.571 E33.86387
G1 X124.42 Y103.708 E33.91467
G1 X130.019 Y104.054 E34.07295
G1 X132.179 Y104.149 E34.13395
G1 X135.04 Y104.175 E34.21468
G1 X136.563 Y104.158 E34.25766
G1 X139.769 Y104.019 E34.3482
G1 X140.931 Y103.95 E34.38105
G1 X144.256 Y103.722 E34.47509
G1 X145.391 Y103.631 E34.50721
G1 X147.095 Y103.479 E34.55548
G1 X149.287 Y103.24 E34.6177
G1 X149.969 Y103.157 E34.63709
G1 X151.449 Y102.959 E34.67922
G1 X152.192 Y102.852 E34.7004
G1 X154.405 Y102.49 E34.76367
G1 X155.623 Y102.25 E34.7987
G1 X156.613 Y102.044 E34.82723
G1 X157.643 Y101.797 E34.85712
G1 X158.803 Y101.5 E34.8909
G1 X159.606 Y101.275 E34.91443
G1 X160.909 Y100.883 E34.95282
G1 X161.517 Y100.691 E34.97081
G1 X165.641 Y99.285 E35.09375
G1 X167.273 Y98.697 E35.1427
G1 X169.15 Y97.988 E35.19931
G1 X170.084 Y97.611 E35.22773
G1 X171.005 Y97.255 E35.25559
G1 X172.443 Y96.647 E35.29964
G1 X172.836 Y96.495 E35.31153
G1 X174.276 Y95.86 E35.35594
G1 X176.39 Y94.982 E35.42053
G1 X176.663 Y94.85 E35.42908
G1 X178.222 Y94.172 E35.47705
G1 X179.038 Y93.746 E35.50303
G1 X180.015 Y93.294 E35.5334
G1 X181.211 Y92.61 E35.57227
G1 X181.74 Y92.351 E35.58889
G1 X183.409 Y91.323 E35.6442
G1 X185.112 Y90.319 E35.69998
G1 X185.596 Y89.956 E35.71705
G1 X186.753 Y89.229 E35.75561
G1 X187.782 Y88.393 E35.79302
G1 X188.341 Y88.022 E35.81195
G1 X189.613 Y86.913 E35.85956
G1 X189.923 Y86.696 E35.87024
G1 X190.061 Y86.581 E35.87531
G1 X191.817 Y85.294 E35.93674
G1 X192.869 Y84.263 E35.9783
G1 X193.682 Y83.628 E36.00741
G1 X195.264 Y82.256 E36.06649
G1 X195.366 Y82.219 E36.06955
G1 X195.393 Y82.224 E36.07033
G0 F6600 X195.586 Y82.147
G0 X195.676 Y82.127
G0 X195.697 Y82.224
G0 X220.359 Y101.623
;TYPE:FILL
G1 F2100 X200.229 Y81.493 E36.87358
G1 X199.004 Y81.716 E36.90871
G1 X197.424 Y82.039 E36.95422
G1 X217.341 Y101.957 E37.74899
G1 X216.968 Y102.041 E37.75978
G1 X215.803 Y102.346 E37.79376
G1 X214.775 Y102.743 E37.82485
G1 X194.953 Y82.92 E38.61583
G1 X193.865 Y83.863 E38.65646
G1 X193.124 Y84.443 E38.68301
G1 X212.515 Y103.834 E39.45677
G1 X212.485 Y103.851 E39.45774
G1 X210.265 Y104.936 E39.52746
G1 X191.343 Y86.013 E40.28253
G1 X190.242 Y86.819 E40.32103
G1 X190.11 Y86.931 E40.32592
G1 X189.792 Y87.153 E40.33686
G1 X189.439 Y87.462 E40.3501
G1 X208.102 Y106.124 E41.09479
G1 X206.449 Y107.104 E41.14901
G1 X206.014 Y107.389 E41.16369
G1 X187.574 Y88.948 E41.89952
G1 X186.927 Y89.473 E41.92303
G1 X185.766 Y90.203 E41.96173
G1 X185.601 Y90.327 E41.96755
G1 X203.967 Y108.693 E42.70041
G1 X203.688 Y108.862 E42.70962
G1 X202.34 Y109.824 E42.75634
G1 X201.991 Y110.068 E42.76836
G1 X183.526 Y91.603 E43.50517
G1 X181.886 Y92.612 E43.5595
G1 X181.414 Y92.843 E43.57433
G1 X200.085 Y111.514 E44.31936
G1 X200.003 Y111.582 E44.32237
G1 X198.747 Y112.642 E44.36874
