;FLAVOR:Marlin
;TIME:6666
;Filament used: 0m
;Layer height: 0.3

;Generated with Cura_SteamEngine master
M104 S225
M105
M109 S225
M82 ;absolute extrusion mode
G28 ;Home
G29
G1 Z15.0 F6000 ;Move the platform down 15mm
;Prime the extruder
G92 E0
G1 F200 E3
G92 E0
G92 E0
G1 F2400 E-2
;LAYER_COUNT:84
;LAYER:0
M107
G0 F6600 X50.025 Y99.79 Z0.3
;TYPE:SKIRT
G1 F2400 E0
G1 F2100 X50.201 Y99.703 E0.00554
G1 X55.626 Y97.2 E0.17412
G1 X55.908 Y97.085 E0.18271
G1 X61.088 Y95.252 E0.33775
G1 X61.219 Y95.209 E0.34164
G1 X63.228 Y94.591 E0.40095
G1 X63.336 Y94.559 E0.40413
G1 X70.164 Y92.712 E0.60371
G1 X70.26 Y92.688 E0.6065
G1 X84.501 Y89.288 E1.01961
G1 X84.592 Y89.268 E1.02224
G1 X103.217 Y85.376 E1.55911
G1 X103.318 Y85.356 E1.56202
G1 X109.541 Y84.257 E1.74032
G1 X109.626 Y84.243 E1.74275
G1 X117.168 Y83.114 E1.95793
G1 X117.334 Y83.094 E1.96265
G1 X129.766 Y81.869 E2.31512
G1 X135.527 Y81.214 E2.47872
G1 X144.603 Y80.036 E2.73696
G1 X164.217 Y76.76 E3.29805
G1 X169.823 Y75.645 E3.45933
G1 X174.49 Y74.487 E3.595
G1 X174.898 Y74.413 E3.6067
G1 X176.878 Y74.179 E3.66296
G1 X177.05 Y74.163 E3.66783
G1 X182.311 Y73.82 E3.81659
G1 X182.372 Y73.817 E3.81831
G1 X185.962 Y73.649 E3.91972
G1 X186.023 Y73.646 E3.92144
G1 X197.369 Y73.325 E4.24171
G1 X197.465 Y73.324 E4.24442
G1 X206.018 Y73.333 E4.48575
G1 X206.119 Y73.335 E4.4886
G1 X215.223 Y73.621 E4.7456
G1 X215.328 Y73.626 E4.74857
G1 X224.825 Y74.23 E5.01708
G1 X224.923 Y74.237 E5.01985
G1 X229.627 Y74.677 E5.15315
G1 X229.702 Y74.685 E5.15528
G1 X234.4 Y75.233 E5.28874
G1 X234.482 Y75.244 E5.29107
G1 X239.132 Y75.904 E5.42359
G1 X239.219 Y75.917 E5.42607
G1 X243.97 Y76.722 E5.56204
G1 X244.064 Y76.74 E5.56474
G1 X248.873 Y77.699 E5.7031
G1 X248.954 Y77.716 E5.70544
G1 X252.265 Y78.463 E5.80121
G1 X252.353 Y78.484 E5.80376
G1 X257.087 Y79.689 E5.94159
G1 X257.184 Y79.715 E5.94443
G1 X261.542 Y80.967 E6.07236
G1 X261.645 Y80.999 E6.07541
G1 X266.123 Y82.445 E6.20818
G1 X266.245 Y82.487 E6.21182
G1 X270.747 Y84.137 E6.34711
G1 X270.892 Y84.194 E6.35151
G1 X277.022 Y86.775 E6.53918
G1 X277.179 Y86.846 E6.54404
G1 X281.348 Y88.864 E6.67473
G1 X281.507 Y88.946 E6.67978
G1 X286.333 Y91.614 E6.83537
G1 X286.478 Y91.699 E6.84011
G1 X289.909 Y93.832 E6.9541
G1 X290.089 Y93.952 E6.96021
G1 X295.073 Y97.523 E7.13321
G1 X295.24 Y97.652 E7.13916
G1 X298.548 Y100.358 E7.25975
G1 X298.727 Y100.515 E7.26647
G1 X302.511 Y104.096 E7.41347
G1 X302.675 Y104.263 E7.42007
G1 X305.56 Y107.409 E7.54051
G1 X305.7 Y107.571 E7.54655
G1 X307.907 Y110.316 E7.64593
G1 X308.024 Y110.472 E7.65144
G1 X309.503 Y112.552 E7.72345
G1 X309.606 Y112.705 E7.72865
G1 X311.129 Y115.123 E7.80928
G1 X311.244 Y115.32 E7.81572
G1 X312.637 Y117.912 E7.89875
G1 X312.764 Y118.176 E7.90701
G1 X314.304 Y121.775 E8.01747
G1 X314.432 Y122.127 E8.02804
G1 X315.394 Y125.343 E8.12275
G1 X315.457 Y125.589 E8.12992
G1 X315.747 Y126.926 E8.16852
G1 X315.781 Y127.108 E8.17374
G1 X316.025 Y128.643 E8.2176
G1 X316.053 Y128.866 E8.22394
G1 X316.199 Y130.49 E8.26995
G1 X316.212 Y130.741 E8.27704
G1 X316.24 Y132.858 E8.33678
G1 X316.232 Y133.135 E8.3446
G1 X316.067 Y135.471 E8.41067
G1 X316.021 Y135.832 E8.42094
G1 X315.497 Y138.695 E8.50307
G1 X315.406 Y139.069 E8.51393
G1 X314.544 Y141.879 E8.59686
G1 X314.455 Y142.131 E8.6044
G1 X313.854 Y143.642 E8.65028
G1 X313.777 Y143.82 E8.65575
G1 X312.919 Y145.654 E8.71289
G1 X312.811 Y145.865 E8.71957
G1 X311.585 Y148.061 E8.79054
G1 X311.417 Y148.331 E8.79951
G1 X309.267 Y151.434 E8.90603
G1 X309.146 Y151.597 E8.91175
G1 X308.259 Y152.723 E8.9522
G1 X308.113 Y152.896 E8.95859
G1 X305.221 Y156.089 E9.08014
G1 X305.003 Y156.308 E9.08886
G1 X302.116 Y158.95 E9.19928
G1 X301.896 Y159.134 E9.20737
G1 X298.655 Y161.62 E9.32262
G1 X298.438 Y161.774 E9.33013
G1 X294.177 Y164.527 E9.47327
G1 X293.934 Y164.669 E9.48121
G1 X289.711 Y166.912 E9.61613
G1 X289.486 Y167.021 E9.62319
G1 X285.374 Y168.82 E9.74983
G1 X285.192 Y168.893 E9.75536
G1 X280.296 Y170.697 E9.90258
G1 X280.132 Y170.753 E9.90747
G1 X276.053 Y172.018 E10.02797
G1 X275.917 Y172.057 E10.03197
G1 X272.619 Y172.926 E10.1282
G1 X272.483 Y172.959 E10.13215
G1 X265.9 Y174.399 E10.32228
G1 X265.744 Y174.429 E10.32677
G1 X261.158 Y175.203 E10.45799
G1 X261.044 Y175.22 E10.46125
G1 X256.603 Y175.81 E10.58765
G1 X256.494 Y175.823 E10.59075
G1 X251.841 Y176.285 E10.72269
G1 X251.727 Y176.294 E10.72591
G1 X246.992 Y176.599 E10.85979
G1 X246.872 Y176.605 E10.86318
G1 X242.174 Y176.736 E10.99579
G1 X242.049 Y176.737 E10.99932
G1 X237.315 Y176.69 E11.1329
G1 X237.185 Y176.686 E11.13657
G1 X232.519 Y176.455 E11.26838
G1 X232.398 Y176.447 E11.27181
G1 X227.889 Y176.057 E11.39951
G1 X227.785 Y176.046 E11.40246
G1 X223.323 Y175.518 E11.52923
G1 X223.225 Y175.505 E11.53202
G1 X208.691 Y173.339 E11.94664
G1 X200.942 Y172.375 E12.16697
G1 X200.676 Y172.331 E12.17458
G1 X195.47 Y171.247 E12.32462
G1 X194.977 Y171.103 E12.33911
G1 X194.513 Y170.885 E12.35358
G1 X194.188 Y170.674 E12.36451
G1 X189.081 Y166.918 E12.54338
G1 X184.478 Y163.931 E12.69821
G1 X179.739 Y161.225 E12.85219
G1 X174.834 Y158.781 E13.00682
G1 X169.793 Y156.616 E13.16162
G1 X167.225 Y155.638 E13.23915
G1 X164.703 Y154.763 E13.31447
G1 X159.437 Y153.176 E13.46966
G1 X154.113 Y151.896 E13.62416
G1 X148.734 Y150.921 E13.77841
G1 X143.325 Y150.253 E13.93218
G1 X134.211 Y149.684 E14.18984
G1 X128.911 Y149.598 E14.33941
G1 X119.835 Y149.853 E14.5956
G1 X110.885 Y150.5 E14.84879
G1 X99.35 Y151.593 E15.17571
G1 X87.544 Y152.942 E15.511
G1 X87.435 Y152.952 E15.51409
G1 X84.818 Y153.164 E15.58817
G1 X84.709 Y153.171 E15.59125
G1 X79.249 Y153.431 E15.74548
G1 X79.083 Y153.435 E15.75017
G1 X73.12 Y153.419 E15.91842
G1 X72.844 Y153.407 E15.92622
G1 X68.138 Y152.999 E16.0595
G1 X67.851 Y152.961 E16.06767
G1 X62.348 Y151.992 E16.22533
G1 X62.056 Y151.927 E16.23377
G1 X55.911 Y150.261 E16.41341
G1 X55.643 Y150.176 E16.42135
G1 X50.06 Y148.138 E16.58904
G1 X49.775 Y148.018 E16.59777
G1 X45.732 Y146.096 E16.72408
G1 X45.392 Y145.91 E16.73501
G1 X40.591 Y142.891 E16.89503
G1 X40.139 Y142.549 E16.91103
G1 X38.276 Y140.871 E16.98177
G1 X38.051 Y140.647 E16.99073
G1 X35.505 Y137.865 E17.09714
G1 X35.148 Y137.397 E17.11375
G1 X34.622 Y136.563 E17.14157
G1 X34.449 Y136.253 E17.15158
G1 X33.314 Y133.933 E17.22446
G1 X33.148 Y133.53 E17.23676
G1 X31.899 Y129.796 E17.34785
G1 X31.775 Y129.298 E17.36233
G1 X31.738 Y128.991 E17.37106
G1 X31.478 Y125.462 E17.4709
G1 X31.469 Y125.254 E17.47678
G1 X31.442 Y122.608 E17.55144
G1 X31.473 Y122.125 E17.56509
G1 X31.902 Y119.002 E17.65404
G1 X31.968 Y118.655 E17.66401
G1 X32.668 Y115.838 E17.74591
G1 X32.808 Y115.407 E17.75869
G1 X33.757 Y113.038 E17.8307
G1 X34.018 Y112.521 E17.84704
G1 X35.324 Y110.423 E17.91677
G1 X35.696 Y109.935 E17.93409
G1 X36.621 Y108.928 E17.97267
G1 X36.866 Y108.687 E17.98236
G1 X40.129 Y105.805 E18.1052
G1 X40.504 Y105.519 E18.11851
G1 X45.593 Y102.181 E18.29023
G1 X45.844 Y102.031 E18.29848
G1 X50.025 Y99.79 E18.43233
G1 F2400 E16.43233
G0 F6600 X63.806 Y97.165
G0 X64.082 Y98.11
G0 X167.446 Y79.91
G0 X176.927 Y77.899
G0 X176.911 Y77.801
;TYPE:WALL-OUTER
G1 F2400 E18.43233
G1 F2100 X176.995 Y77.776 E18.4348
G1 X178.888 Y77.63 E18.48837
G1 X179.716 Y77.586 E18.51177
G1 X181.178 Y77.486 E18.55312
G1 X182.304 Y77.435 E18.58492
G1 X183.465 Y77.361 E18.61775
G1 X184.824 Y77.308 E18.65612
G1 X185.762 Y77.257 E18.68263
G1 X187.284 Y77.207 E18.72559
G1 X188.059 Y77.172 E18.74748
G1 X189.707 Y77.124 E18.794
G1 X190.366 Y77.097 E18.81261
G1 X192.67 Y77.028 E18.87765
G1 X197.283 Y76.927 E19.00784
G1 X200.988 Y76.871 E19.11239
G1 X205.614 Y76.924 E19.24293
G1 X210.005 Y77.026 E19.36686
G1 X214.702 Y77.198 E19.49948
G1 X219.381 Y77.442 E19.63168
G1 X224.052 Y77.773 E19.76381
G1 X228.72 Y78.197 E19.89606
G1 X233.373 Y78.725 E20.02819
G1 X237.993 Y79.363 E20.15978
G1 X242.675 Y80.137 E20.29368
G1 X247.434 Y81.063 E20.43048
G1 X252.208 Y82.141 E20.56857
G1 X256.902 Y83.36 E20.70541
G1 X261.387 Y84.673 E20.83727
G1 X265.972 Y86.186 E20.9735
G1 X270.5 Y87.891 E21.11002
G1 X275.139 Y89.859 E21.25221
G1 X279.647 Y92.027 E21.39335
G1 X284.029 Y94.417 E21.53419
G1 X288.119 Y96.949 E21.66991
G1 X292.287 Y99.895 E21.81393
G1 X295.939 Y102.838 E21.94627
G1 X299.635 Y106.275 E22.08867
G1 X303.035 Y109.972 E22.2304
G1 X304.776 Y112.126 E22.30854
G1 X306.119 Y113.966 E22.37282
G1 X306.939 Y115.179 E22.41413
G1 X307.725 Y116.424 E22.45567
G1 X308.455 Y117.672 E22.49647
G1 X309.14 Y118.943 E22.53721
G1 X309.807 Y120.3 E22.57987
G1 X310.362 Y121.555 E22.61859
G1 X310.89 Y122.89 E22.6591
G1 X311.362 Y124.255 E22.69985
G1 X311.761 Y125.615 E22.73984
G1 X312.095 Y127.001 E22.78007
G1 X312.363 Y128.392 E22.82004
G1 X312.556 Y129.858 E22.86176
G1 X312.653 Y131.422 E22.90597
G1 X312.646 Y133.15 E22.95473
G1 X312.521 Y134.91 E23.00452
G1 X312.266 Y136.666 E23.05458
G1 X311.891 Y138.356 E23.10343
G1 X311.401 Y140.009 E23.15207
G1 X310.806 Y141.628 E23.20074
G1 X310.117 Y143.214 E23.24953
G1 X309.344 Y144.754 E23.29815
G1 X308.442 Y146.326 E23.34929
G1 X305.914 Y149.948 E23.47392
G1 X302.942 Y153.313 E23.6006
G1 X299.615 Y156.372 E23.72812
G1 X295.9 Y159.194 E23.85975
G1 X292.223 Y161.514 E23.98243
G1 X288.033 Y163.738 E24.11628
G1 X283.959 Y165.521 E24.24175
G1 X279.628 Y167.138 E24.3722
G1 X275.208 Y168.524 E24.5029
G1 X270.694 Y169.71 E24.63459
G1 X266.147 Y170.703 E24.76591
G1 X261.496 Y171.523 E24.89916
G1 X256.984 Y172.152 E25.0277
G1 X252.344 Y172.641 E25.15935
G1 X247.692 Y172.973 E25.29095
G1 X243.016 Y173.139 E25.42297
G1 X238.357 Y173.131 E25.55442
G1 X233.676 Y172.938 E25.68661
G1 X229.029 Y172.565 E25.81815
G1 X224.397 Y172.035 E25.9497
G1 X219.781 Y171.383 E26.08124
G1 X213.882 Y170.471 E26.24966
G1 X210.592 Y169.95 E26.34365
G1 X206.158 Y169.39 E26.46975
G1 X205.26 Y169.289 E26.49525
G1 X201.417 Y168.816 E26.6045
G1 X200.066 Y168.577 E26.64321
G1 X198.673 Y168.306 E26.68325
G1 X196.522 Y167.842 E26.74534
G1 X196.25 Y167.733 E26.75361
G1 X194.612 Y166.244 E26.81607
G1 X193.69 Y165.559 E26.84848
G1 X192.666 Y164.669 E26.88676
G1 X190.865 Y163.398 E26.94896
G1 X190.719 Y163.28 E26.95425
G1 X190.398 Y163.064 E26.96517
G1 X189.061 Y161.955 E27.01418
G1 X188.476 Y161.591 E27.03362
G1 X187.386 Y160.755 E27.07238
G1 X186.178 Y160.051 E27.11183
G1 X185.647 Y159.678 E27.13014
G1 X183.545 Y158.527 E27.19776
G1 X182.069 Y157.683 E27.24574
G1 X181.556 Y157.456 E27.26157
G1 X180.237 Y156.757 E27.30369
G1 X179.243 Y156.34 E27.3341
G1 X178.329 Y155.899 E27.36274
G1 X176.842 Y155.319 E27.40777
G1 X176.382 Y155.113 E27.42199
G1 X174.537 Y154.424 E27.47756
G1 X173.941 Y154.211 E27.49542
G1 X172.582 Y153.665 E27.53674
G1 X172.285 Y153.562 E27.54561
G1 X170.633 Y152.922 E27.5956
G1 X169.775 Y152.621 E27.62126
G1 X168.658 Y152.204 E27.6549
G1 X167.441 Y151.788 E27.69119
G1 X166.659 Y151.51 E27.71461
G1 X164.64 Y150.842 E27.77461
G1 X162.711 Y150.235 E27.83167
G1 X161.363 Y149.84 E27.87131
G1 X160.366 Y149.523 E27.90082
G1 X158.491 Y148.992 E27.95581
G1 X157.78 Y148.808 E27.97653
G1 X156.398 Y148.47 E28.01668
G1 X155.705 Y148.31 E28.03674
G1 X154.241 Y148.018 E28.07887
G1 X153.14 Y147.817 E28.11044
G1 X152.031 Y147.641 E28.14213
G1 X150.792 Y147.46 E28.17746
G1 X149.777 Y147.324 E28.20635
G1 X148.43 Y147.162 E28.24463
G1 X147.45 Y147.052 E28.27246
G1 X146.17 Y146.924 E28.30876
G1 X145.153 Y146.796 E28.33768
G1 X143.882 Y146.654 E28.37376
G1 X141.642 Y146.485 E28.43715
G1 X138.224 Y146.272 E28.53377
G1 X136.266 Y146.163 E28.58911
G1 X133.125 Y146.034 E28.67781
G1 X130.704 Y145.996 E28.74613
G1 X127.974 Y145.997 E28.82316
G1 X124.879 Y146.06 E28.9105
G1 X118.572 Y146.297 E29.08858
G1 X116.986 Y146.381 E29.1334
G1 X111.702 Y146.803 E29.28296
G1 X110.233 Y146.948 E29.32461
G1 X105.917 Y147.3 E29.4468
G1 X104.88 Y147.398 E29.47619
G1 X98.203 Y148.092 E29.6656
G1 X90.064 Y149.043 E29.89681
G1 X86.2 Y149.467 E30.00649
G1 X85.077 Y149.548 E30.03826
G1 X79.391 Y149.834 E30.1989
G1 X74.895 Y149.875 E30.32576
G1 X73.843 Y149.874 E30.35545
G1 X69.744 Y149.556 E30.47145
G1 X68.348 Y149.411 E30.51105
G1 X64.905 Y148.835 E30.60955
G1 X62.911 Y148.444 E30.66688
G1 X60.265 Y147.759 E30.744
G1 X57.377 Y146.973 E30.82845
G1 X55.744 Y146.382 E30.87746
G1 X51.744 Y144.956 E30.99728
G1 X50.158 Y144.244 E31.04633
G1 X47.88 Y143.136 E31.1178
G1 X47.241 Y142.836 E31.13772
G1 X44.539 Y141.11 E31.22819
G1 X42.454 Y139.822 E31.29734
G1 X41.64 Y139.091 E31.32821
G1 X40.775 Y138.298 E31.36132
G1 X39.44 Y136.879 E31.41629
G1 X38.136 Y135.42 E31.4715
G1 X37.566 Y134.492 E31.50223
G1 X36.602 Y132.509 E31.56445
G1 X36.242 Y131.521 E31.59412
G1 X35.812 Y130.303 E31.63056
G1 X35.341 Y128.856 E31.6735
G1 X35.252 Y128.142 E31.6938
G1 X35.15 Y126.573 E31.73817
G1 X35.103 Y125.689 E31.76314
G1 X35.024 Y124.497 E31.79685
G1 X35.032 Y123.731 E31.81847
G1 X35.033 Y122.59 E31.85066
G1 X35.1 Y122.135 E31.86364
G1 X35.248 Y120.742 E31.90316
G1 X35.59 Y118.8 E31.9588
G1 X35.896 Y117.873 E31.98634
G1 X36.151 Y116.714 E32.01983
G1 X36.821 Y115.158 E32.06763
G1 X37.086 Y114.384 E32.09071
G1 X38.237 Y112.485 E32.15337
G1 X39.216 Y111.403 E32.19454
G1 X42.491 Y108.509 E32.31786
G1 X44.851 Y106.917 E32.39818
G1 X47.227 Y105.379 E32.47804
G1 X48.868 Y104.476 E32.53089
G1 X51.739 Y102.945 E32.6227
G1 X56.806 Y100.607 E32.78015
G1 X57.433 Y100.332 E32.79947
G1 X58.974 Y99.777 E32.84568
G1 X62.97 Y98.413 E32.96482
G1 X64.076 Y98.091 E32.99733
G1 X68.389 Y96.883 E33.1237
G1 X71.016 Y96.21 E33.20022
G1 X73.932 Y95.487 E33.28499
G1 X78.17 Y94.464 E33.408
G1 X84.767 Y92.911 E33.59923
G1 X90.531 Y91.689 E33.76548
G1 X91.66 Y91.434 E33.79814
G1 X96.151 Y90.482 E33.92767
G1 X97.974 Y90.088 E33.9803
G1 X104.336 Y88.823 E34.16332
G1 X106.346 Y88.459 E34.22096
G1 X110.6 Y87.728 E34.34275
G1 X116.907 Y86.75 E34.52283
G1 X122.291 Y86.24 E34.67542
G1 X123.018 Y86.137 E34.69614
G1 X127.655 Y85.747 E34.82744
G1 X129.051 Y85.548 E34.86723
G1 X132.807 Y85.212 E34.97363
G1 X135.165 Y84.867 E35.04087
G1 X138.374 Y84.545 E35.13187
G1 X141.528 Y84.077 E35.22184
G1 X143.705 Y83.844 E35.28361
G1 X145.357 Y83.556 E35.33093
G1 X146.033 Y83.46 E35.3502
G1 X148.027 Y83.104 E35.40735
G1 X148.509 Y83.034 E35.42109
G1 X150.699 Y82.627 E35.48394
G1 X152.857 Y82.24 E35.5458
G1 X155.673 Y81.822 E35.62613
G1 X155.96 Y81.763 E35.6344
G1 X158.02 Y81.462 E35.69314
G1 X158.529 Y81.357 E35.7078
G1 X160.297 Y81.111 E35.75817
G1 X161.077 Y80.946 E35.78066
G1 X162.712 Y80.722 E35.82723
G1 X163.711 Y80.503 E35.85608
G1 X165.07 Y80.311 E35.89481
G1 X166.334 Y80.028 E35.93136
G1 X167.439 Y79.871 E35.96285
G1 X168.964 Y79.509 E36.00707
G1 X169.793 Y79.385 E36.03073
G1 X171.602 Y78.926 E36.08339
G1 X172.109 Y78.842 E36.09789
G1 X174.214 Y78.28 E36.15936
G1 X174.382 Y78.251 E36.16417
G1 X175.456 Y77.945 E36.19568
G1 X176.161 Y77.837 E36.21581
G1 X176.911 Y77.801 E36.23699
G0 F6600 X176.995 Y77.776
G0 X177.207 Y77.76
G0 X177.213 Y77.859
G0 X219.289 Y100.553
;TYPE:FILL
G1 F2100 X195.991 Y77.255 E37.16666
G1 X192.712 Y77.327 E37.2592
G1 X216.025 Y100.641 E38.18948
G1 X214.981 Y100.887 E38.21975
G1 X213.428 Y101.395 E38.26585
G1 X189.464 Y77.431 E39.22209
G1 X188.375 Y77.457 E39.25283
G1 X187.292 Y77.506 E39.28342
G1 X186.222 Y77.542 E39.31362
G1 X211.076 Y102.395 E40.30536
G1 X210.458 Y102.658 E40.32431
G1 X210.391 Y102.715 E40.32679
G1 X210.196 Y102.78 E40.33259
G1 X208.792 Y103.463 E40.37664
G1 X183.019 Y77.69 E41.40507
G1 X182.323 Y77.733 E41.42475
G1 X180.918 Y77.805 E41.46444
G1 X179.856 Y77.878 E41.49448
G1 X206.601 Y104.624 E42.56171
G1 X204.82 Y105.675 E42.62006
G1 X204.508 Y105.882 E42.63062
G1 X176.735 Y78.109 E43.73886
G1 X176.192 Y78.135 E43.75419
G1 X175.519 Y78.238 E43.7734
G1 X174.454 Y78.542 E43.80465
G1 X174.283 Y78.57 E43.80954
G1 X173.937 Y78.663 E43.81965
G1 X202.463 Y107.189 E44.95793
G1 X202.15 Y107.379 E44.96826
G1 X201.434 Y107.878 E44.99289
G1 X200.51 Y108.587 E45.02575
G1 X171.247 Y79.325 E46.19342
G1 X169.851 Y79.679 E46.23405
G1 X169.027 Y79.801 E46.25756
G1 X168.498 Y79.927 E46.2729
G1 X198.6 Y110.03 E47.47409
G1 X198.352 Y110.216 E47.48283
G1 X197.762 Y110.568 E47.50222
G1 X197.633 Y110.653 E47.50658
G1 X197.441 Y110.887 E47.51512
